!!!COM:	Josquin des Pres
**kern	**kern
*part2	*part1
*staff2	*staff1
*clefGv2	*clefGv2
*k[b-]	*k[b-]
*M2/1	*M2/1
=1-	=1-
0r	1d
.	1d
=2	=2
1c	2c
.	2A
1c	2.c
.	4B-
=3	=3
2B-	1G
2G	.
2.B-	1r
4A	.
=4	=4
1F	1A
1r	1A
=5	=5
1G	2G
.	2E
1G	2.G
.	4F
=6	=6
2F	1D
2D	.
2.F	2r
.	[2A
4E	.
=7	=7
1C	2A]
.	2G
2r	2.B-
[2G	.
.	4c
=8	=8
2G]	1d
2F	.
2.A	[1c
4B-	.
=9	=9
1c	2c]
.	4B-
.	4A
[1B-	1G
=10	=10
2B-]	2r
4A	1d
4G	.
1F	.
.	2c
=11	=11
2r	2.e
1c	.
.	4f
.	1g
2B-	.
=12	=12
2.d	1.f
4e	.
1f	.
.	4e
.	4d
=13	=13
1.e	1c
.	[1g
4d	.
4c	.
=14	=14
1B-	2g]
.	2f
[1f	2.d
.	4e
=15	=15
2f]	2f
2e	2g
2.c	1e
4d	.
=16	=16
2e	2r
2f	2d
1d	1f
=17	=17
2r	1e
2c	.
1e	1c
=18	=18
1d	2r
.	2B-
1B-	1d
=19	=19
2r	1c
2A	.
1c	1A
=20	=20
1B-	2r
.	2G
1G	1B-
=21	=21
2r	1A
2F	.
1A	1F
=22	=22
1G	2r
.	2.G
1E	.
.	4F
.	2G
=23	=23
2r	2A
2.F	2D
.	2r
4E	.
2F	2A
=24	=24
2G	2B-
2C	2c
2r	2.d
2G	.
.	4B-
=25	=25
2A	2c
2B-	2d
2.c	1A
4A	.
=26	=26
2B-	2r
2c	2A
1G	2B-
.	2G
=27	=27
2r	2A
2G	2B-
2A	2c
2F	2A
=28	=28
2G	2B-
2A	2c
2B-	1d
2G	.
=29	=29
2A	2r
2B-	2d
1c	2e
.	2c
=30	=30
2r	2d
2c	2e
2d	2f
2B-	2d
=31	=31
2c	2e
2d	2f
2e	1g
2c	.
=32	=32
2d	2r
2e	2G
1f	2A
.	2F
=33	=33
2r	2G
2F	2A
2G	2B-
2E	2c
=34	=34
2F	2d
2G	2B-
2A	2c
2B-	2d
=35	=35
2c	2e
2A	2f
2B-	2g
2c	2e
=36	=36
2d	2f
2e	2g
2f	1a
2d	.
=37	=37
2e	2r
2f	2a
1g	2b-
.	2g
=38	=38
2r	1b-
2g	.
2a	1a
2f	.
=39	=39
1a	2r
.	2f
1g	2g
.	2e
=40	=40
2r	1g
2e	.
2f	1f
2d	.
=41	=41
1f	2r
.	2d
1e	2e
.	2c
=42	=42
2r	1e
2c	.
2d	1d
2B-	.
=43	=43
1d	2r
.	2B-
1c	2c
.	2A
=44	=44
2r	1c
2A	.
2B-	1B-
2G	.
=45	=45
1B-	2r
.	2G
1A	2A
.	[2c
=46	=46
2r	2c]
2F	4B-
.	4A
2G	2B-
[2B-	2G
=47	=47
2B-]	1d
4A	.
4G	.
2A	2c
2F	2f
=48	=48
1c	2e
.	1d
2B-	.
2e	2c
=49	=49
2d	2f
1c	2e
.	1d
2B-	.
=50	=50
2e	2c
2d	2B-
1c	1e-X
=51	=51
2B-	2d
2A	1c
1d	.
.	2B-
=52	=52
2c	2e
1B-	2d
.	1c
2A	.
=53	=53
2d	2B-
2c	2A
1B-	1d
=54	=54
2A	2c
2G	1B-
1c	.
.	2A
=55	=55
2B-	2d
1A	2c
.	1B-
2G	.
=56	=56
2c	2A
2B-	2.G
1A	.
.	4F
.	4F
.	4E
=57	=57
0G	0G
==	==
*-	*-
